svgs/regular/envelopes-bulk.svg

<svg xmlns="http://www.w3.org/2000/svg" viewBox="0 0 640 512"><!--! Font Awesome Pro 6.2.0 by @fontawesome - https://fontawesome.com License - https://fontawesome.com/license (Commercial License) Copyright 2022 Fonticons, Inc. --><path d="M592 128h-320C245.5 128 224 149.5 224 176V192h48V176h320v192H416V416h176c26.5 0 48-21.5 48-48v-192C640 149.5 618.5 128 592 128zM112 48h320V96H480V48C480 21.5 458.5 0 432 0h-320C85.5 0 64 21.5 64 48V192h48V48zM336 224h-288C21.5 224 0 245.5 0 272v192C0 490.5 21.5 512 48 512h288c26.5 0 48-21.5 48-48v-192C384 245.5 362.5 224 336 224zM336 464h-288v-120C62.5 355 128 402.1 128 402.1C142.5 413.3 166.6 432 192 432s49.5-18.75 64-29.88c0 0 65.5-47.13 80-58.13V464zM336 285.4c-2.375 1.875-111.8 82-117.1 85.63C210.4 376.8 199.8 384 192 384c-9.375 0-22.75-10.5-31.5-17.5C157.1 363.8 50.38 284 48 282.3V272h288V285.4zM496 208v64h64v-64H496z"/></svg>

<svg xmlns="http://www.w3.org/2000/svg" viewBox="0 0 640 512"><!--! Font Awesome Pro 6.3.0 by @fontawesome - https://fontawesome.com License - https://fontawesome.com/license (Commercial License) Copyright 2023 Fonticons, Inc. --><path d="M112 48H432V96h48V48c0-26.5-21.5-48-48-48H112C85.5 0 64 21.5 64 48V192h48V48zM48 272H336v6.9L192.1 385.4c0 0-.1 0-.1 0s-.1 0-.1 0L48 278.9V272zm0 66.6L163.3 424c8.3 6.2 18.4 9.5 28.7 9.5s20.4-3.3 28.7-9.5L336 338.6V464H48V338.6zM0 272V464c0 26.5 21.5 48 48 48H336c26.5 0 48-21.5 48-48V272c0-26.5-21.5-48-48-48H48c-26.5 0-48 21.5-48 48zm272-80V176H592V368H416v48H592c26.5 0 48-21.5 48-48V176c0-26.5-21.5-48-48-48H272c-26.5 0-48 21.5-48 48v16h48zm240 16c-8.8 0-16 7.2-16 16v32c0 8.8 7.2 16 16 16h32c8.8 0 16-7.2 16-16V224c0-8.8-7.2-16-16-16H512z"/></svg>
